!!!COM:	la Rue, Pierre de
!!!CDT:	~1452///-1518/11/20
!!!OPR:	Missa Ista est speciosa
!!!ONM:	3
!!!OTL:	Credo
!!!AGN:	Mass; Credo
!!!SCT:	Rue1018c
!!!SCA:	Rue1018c
!!!voices-OPR:	5
!!!voices:	5
**kern	**kern	**kern	**kern	**kern
*staff5	*staff4	*staff3	*staff2	*staff1
*Ivox	*Ivox	*Ivox	*Ivox	*Ivox
*I"Bassus2	*I"Bassus1	*I"Tenor	*I"Contra	*I"Discantus
*I'B2	*I'B1	*I'T	*I'C	*I'D
*>[A,B]	*>[A,B]	*>[A,B]	*>[A,B]	*>[A,B]
*>A	*>A	*>A	*>A	*>A
*clefF4	*clefF4	*clefGv2	*clefGv2	*clefG2
*k[]	*k[]	*k[]	*k[]	*k[]
*M3/1	*M3/1	*M3/1	*M3/1	*M3/1
*met(O)	*met(O)	*met(O)	*met(O)	*met(O)
!!section: Patrem omnipotentem
!!!OMD: Patrem omnipotentem
=1-	=1-	=1-	=1-	=1-
0.r	0E	[0.B	1r	0e
.	.	.	1r	.
.	1E	.	1e	1e
=2	=2	=2	=2	=2
0.r	1E	0.B]	1e	1g
.	2E\	.	1e	2e/
.	2E\	.	.	2.g/
.	1E	.	2e\	.
.	.	.	.	4a/
.	.	.	[2e\	2b\
=3	=3	=3	=3	=3
0.r	0.AA	0.A	4e\]	0cc
.	.	.	4d\	.
.	.	.	4c\	.
.	.	.	4B\	.
.	.	.	2c\	.
.	.	.	2A/	.
.	.	.	2.e\	1a
.	.	.	4c\	.
=4	=4	=4	=4	=4
0.r	2r	0.B	2d\	2g/
.	2E\	.	1e	2g/
.	2E\	.	.	2g/
.	2E\	.	2E/	2g/
.	2.G\	.	2E/	2e/
.	.	.	2E/	[2g/
.	4F\	.	.	.
=5	=5	=5	=5	=5
0.r	4E\	0.B	2.G/	4g/]
.	4D\	.	.	4f/
.	2.G\	.	.	4e/
.	.	.	4A/	4d/
.	.	.	2B\	2e/
.	4F\	.	.	.
.	2D\	.	2.A/	4d/
.	.	.	.	4c/
.	1E	.	.	1B
.	.	.	4G#i/	.
.	.	.	2G#i/	.
=6	=6	=6	=6	=6
0.r	1AA	0.r	2A/	1A
.	.	.	2A/	.
.	2r	.	2A/	1r
.	2AA/	.	2A/	.
.	2AA/	.	2.c\	1r
.	2AA/	.	.	.
.	.	.	4d\	.
=7	=7	=7	=7	=7
!!sfootnote: Tenor, m. 7, notes 1--3: e-f-g (La Rue <i>Opera Omnia</i>)
0.r	2.C/	0.r	2e\	1r
.	.	.	2A/	.
.	4D\	.	.	.
.	2E\	.	2.c\	2r
.	2AA/	.	.	2e/
.	.	.	4d\	.
.	2.C/	.	[1e	2e/
.	.	.	.	2e/
.	4D\	.	.	.
=8	=8	=8	=8	=8
0.r	0.E	0.r	1e]	2.g/
.	.	.	.	4a/
.	.	.	2r	2b\
.	.	.	2.e\	2e/
.	.	.	.	2.g/
.	.	.	4d\	.
.	.	.	2c\	.
.	.	.	.	4a/
=9	=9	=9	=9	=9
0.r	0.r	0.r	2B\	1b
.	.	.	1e	.
.	.	.	.	2r
.	.	.	2.d\	2b\
.	.	.	.	2b\
.	.	.	4c\	.
.	.	.	2B\	2b\
=10	=10	=10	=10	=10
0.r	0.r	0.r	1A	1cc
.	.	.	0G	1.b
.	.	.	.	4a/
.	.	.	.	4g/
=11	=11	=11	=11	=11
0.r	0.r	0.r	2r	2a/
.	.	.	2c\	2g/
.	.	.	2c\	2e/
.	.	.	1e	2cc\
.	.	.	.	2cc\
.	.	.	[2d\	[2b\
=12	=12	=12	=12	=12
0.r	0.r	0.r	4d\]	4b\]
.	.	.	4c\	4a/
.	.	.	4B\	4g/
.	.	.	4A/	4f/
.	.	.	2G/	2e/
.	.	.	2A/	1a
.	.	.	1B	.
.	.	.	.	2g#i/
=13	=13	=13	=13	=13
0AA	2r	[0.c	0.A	0.a
.	2E\	.	.	.
.	2E\	.	.	.
.	1F	.	.	.
1AA	.	.	.	.
.	[2E\	.	.	.
=14	=14	=14	=14	=14
2.C/	4E\]	0c]	0.r	0.r
.	4D\	.	.	.
.	4C/	.	.	.
4D\	4BB/	.	.	.
2E\	2AA/	.	.	.
2AA/	2.A\	.	.	.
1E	.	1B	.	.
.	4G\	.	.	.
.	2G\	.	.	.
=15	=15	=15	=15	=15
0AA	2A\	0A	0.r	0.r
.	2E\	.	.	.
.	2F\	.	.	.
.	1E	.	.	.
1C	.	[1G	.	.
.	[2G\	.	.	.
=16	=16	=16	=16	=16
1GG	4G\]	1G]	0.r	0.r
.	4F\	.	.	.
.	1D	.	.	.
0D	.	0F	.	.
.	1A	.	.	.
.	2A\	.	.	.
=17	=17	=17	=17	=17
1AA	2A\	0E	0.r	0.r
.	2A\	.	.	.
2r	2.c\	.	.	.
2AA/	.	.	.	.
.	4B\	.	.	.
2.C/	2A\	1E	.	.
.	2G\	.	.	.
4BB/	.	.	.	.
=18	=18	=18	=18	=18
2AA/	2F\	2r	0.r	0.r
2GG/	1E	2E/	.	.
2EE/	.	2.G/	.	.
1C	2E\	.	.	.
.	.	4F/	.	.
.	2.G\	2E/	.	.
[2BB/	.	2D/	.	.
.	4F\	.	.	.
=19	=19	=19	=19	=19
2BB/]	2D\	1G	0.r	0.r
1AA	4E\	.	.	.
.	4D\	.	.	.
.	4C/	2F/	.	.
.	4BB/	.	.	.
2GG/	1BB	1E	.	.
1FF	.	.	.	.
.	2AA/	2D/	.	.
=20	=20	=20	=20	=20
0.EE	0BB	0.E	1B	2r
.	.	.	.	2e/
.	.	.	2B\	2e/
.	.	.	2.e\	2e/
.	1r	.	.	1g
.	.	.	4d\	.
.	.	.	4c\	.
.	.	.	4B\	.
=21	=21	=21	=21	=21
0.r	0.r	0.r	2A/	1a
.	.	.	1c	.
.	.	.	.	1e
.	.	.	4B\	.
.	.	.	4A/	.
.	.	.	2c\	2r
.	.	.	[2B\	[2g/
=22	=22	=22	=22	=22
0.r	0.r	0.r	2B\]	2g/]
.	.	.	4A/	4f/
.	.	.	4G/	4e/
.	.	.	2B\	2g/
.	.	.	2A/	1f
.	.	.	4D/	.
.	.	.	4E/	.
.	.	.	4F/	4e/
.	.	.	4G/	4d/
=23	=23	=23	=23	=23
0.r	1r	0.r	4A/	2f/
.	.	.	4B\	.
.	.	.	2.c\	2e/
.	1r	.	.	4A/
.	.	.	4B\	4B/
.	.	.	2A/	4c/
.	.	.	.	4d/
.	2r	.	2.G/	4e/
.	.	.	.	4f/
.	2E\	.	.	[2g/
.	.	.	4A/	.
=24	=24	=24	=24	=24
1r	2E\	0.r	2B\	4g/]
.	.	.	.	4f/
.	2E\	.	2.c\	2e/
1r	1G	.	.	1d
.	.	.	4B\	.
.	.	.	2B\	.
2r	2.A\	.	1c	1c
2AA/	.	.	.	.
.	4G\	.	.	.
=25	=25	=25	=25	=25
2AA/	1E	0.r	0.r	0.r
2AA/	.	.	.	.
1C	2r	.	.	.
.	2c\	.	.	.
2.D\	2B\	.	.	.
.	[2A\	.	.	.
4C/	.	.	.	.
=26	=26	=26	=26	=26
1AA	4A\]	0.r	0.r	0.r
.	4G\	.	.	.
.	2F\	.	.	.
2r	2E\	.	.	.
2F\	2D\	.	.	.
2E\	4G\	.	.	.
.	4A\	.	.	.
[2D\	4B\	.	.	.
.	4c\	.	.	.
=27	=27	=27	=27	=27
4D\]	2A\	0.r	0.r	1r
4C/	.	.	.	.
2BB/	1G	.	.	.
1AA	.	.	.	1r
.	2F\	.	.	.
2GG/	2G\	.	.	2r
[2C/	2E\	.	.	2c/
=28	=28	=28	=28	=28
2C/]	1D	0.r	1r	2d/
2BB/	.	.	.	2d/
4C/	1C	.	2r	4e/
4D\	.	.	.	4f/
4E\	.	.	1c	4g/
4F\	.	.	.	4a/
1D	1r	.	.	1f
.	.	.	2B\	.
=29	=29	=29	=29	=29
1C	0.r	0.r	4c\	2e/
.	.	.	4B\	.
.	.	.	4A/	1g
.	.	.	4G/	.
1r	.	.	1A	.
.	.	.	.	2f/
1r	.	.	2G/	4g/
.	.	.	.	4f/
.	.	.	4c\	4e/
.	.	.	4B\	4d/
=30	=30	=30	=30	=30
0.r	0.r	0.r	4A/	4e/
.	.	.	4G/	4c/
.	.	.	2A/	1f
.	.	.	2E/	.
.	.	.	2G/	2.e/
.	.	.	1F	.
.	.	.	.	4d/
.	.	.	.	2d/
=31	=31	=31	=31	=31
1AA	1C	[0.E	1E	0e
2AA/	2C/	.	2r	.
2.AA/	2.C/	.	1A	.
.	.	.	.	1r
4BB/	4D\	.	.	.
4C/	4E\	.	2A/	.
4D\	4F\	.	.	.
=32	=32	=32	=32	=32
2E\	2G\	0.E]	2G/	1e
2AA/	2C/	.	1c	.
0C	2.E\	.	.	2e/
.	.	.	4B\	2.e/
.	4F\	.	4A/	.
.	[1G	.	4G/	.
.	.	.	4A/	4f/
.	.	.	4B\	4g/
.	.	.	4c\	4a/
=33	=33	=33	=33	=33
1GG	1G]	[0.D	0d	2.b\
.	.	.	.	4g/
2FF/	2r	.	.	2a/
2.GG/	1G	.	.	1g
.	.	.	1d	.
4AA/	.	.	.	.
4BB/	2G\	.	.	4f/
4C/	.	.	.	4e/
=34	=34	=34	=34	=34
2D\	2F\	0.D]	0d	2.d/
2GG/	1B	.	.	.
.	.	.	.	4e/
1r	.	.	.	4f/
.	.	.	.	4g/
.	2A\	.	.	2a/
2.GG/	2G\	.	1d	2d/
.	4F\	.	.	2g/
4GG/	4E\	.	.	.
=35	=35	=35	=35	=35
2GG/	2D\	0G	2B\	2g/
2C/	2E\	.	2c\	2a/
2BB/	1D	.	1.d	1b
2GG/	.	.	.	.
1BB	1D	1G	.	1b
.	.	.	2d\	.
=36	=36	=36	=36	=36
2AA/	1E	2A/	2c\	2cc\
2E\	.	2G/	2.e\	2.b\
1F	1r	1A	.	.
.	.	.	4d\	4a/
.	.	.	2d\	1a
1E	1r	1B	1e	.
.	.	.	.	2g#i/
=37	=37	=37	=37	=37
2.AA/	2r	0A	1c	0a
.	2E\	.	.	.
4BB/	.	.	.	.
2C/	2E\	.	1r	.
1D	1F	.	.	.
.	.	1r	1r	1r
4C/	4E\	.	.	.
4BB/	4D\	.	.	.
=38	=38	=38	=38	=38
0AA	2F\	0.c	0.r	0.r
.	1E	.	.	.
.	1A	.	.	.
1C	.	.	.	.
.	[2G\	.	.	.
=39	=39	=39	=39	=39
1GG	2G\]	0.B	0.r	0.r
.	4F\	.	.	.
.	4E\	.	.	.
2GG/	1D	.	.	.
2.GG/	.	.	.	.
.	2D\	.	.	.
4AA/	.	.	.	.
4BB/	[2D\	.	.	.
4C/	.	.	.	.
=40	=40	=40	=40	=40
2D\	4D\]	0A	0.r	0.r
.	4E\	.	.	.
1D	4F\	.	.	.
.	4G\	.	.	.
.	2A\	.	.	.
4C/	2.G\	.	.	.
4BB/	.	.	.	.
1AA	.	1A	.	.
.	4F#i\	.	.	.
.	2F#i\	.	.	.
=41	=41	=41	=41	=41
0.GG	0.G	0.B	1r	1d
.	.	.	1r	2d/
.	.	.	.	1g
.	.	.	1G	.
.	.	.	.	2g/
=42	=42	=42	=42	=42
0.r	0.r	0.r	2G/	2.e/
.	.	.	1c	.
.	.	.	.	4f/
.	.	.	.	2g/
.	.	.	2c\	2.a/
.	.	.	2A/	.
.	.	.	.	4g/
.	.	.	[2d\	2f/
=43	=43	=43	=43	=43
0.r	0.r	0.r	4d\]	1e
.	.	.	4c#i\	.
.	.	.	2c#i\	.
.	.	.	1d	2r
.	.	.	.	2d/
.	.	.	2r	2f/
.	.	.	2A/	2f/
=44	=44	=44	=44	=44
0.r	0.r	0.r	2c\	2e/
.	.	.	2.c\	1a
.	.	.	4B\	.
.	.	.	4c\	2.g/
.	.	.	4d\	.
.	.	.	2e\	.
.	.	.	.	4e/
.	.	.	2d\	4f/
.	.	.	.	4g/
=45	=45	=45	=45	=45
0.r	0.r	0.r	2c\	2e/
.	.	.	2.d\	2.f/
.	.	.	4B\	4d/
.	.	.	4c\	4e/
.	.	.	4d\	4f/
.	.	.	2B\	2d/
.	.	.	[2c\	2c/
=46	=46	=46	=46	=46
0.r	0.r	0.r	4c\]	4e/
.	.	.	4A/	4f/
.	.	.	4B\	4g/
.	.	.	4c\	4a/
.	.	.	2A/	2f/
.	.	.	2G/	2.g/
.	.	.	4B\	.
.	.	.	4c\	4a/
.	.	.	4d\	4b\
.	.	.	4e\	4cc\
=47	=47	=47	=47	=47
0.r	0.r	0.r	2c\	2a/
.	.	.	2.d\	2.b\
.	.	.	4c\	4a/
.	.	.	2B\	1g
.	.	.	1A	.
.	.	.	.	2f#i/
=48	=48	=48	=48	=48
0C	2r	0.e	1G	0g
.	2G\	.	.	.
.	2G\	.	2r	.
.	2G\	.	2c\	.
1C	2E\	.	2c\	1r
.	[2G\	.	2c\	.
=49	=49	=49	=49	=49
0GG	2G\]	0.d	2B\	1g
.	4F\	.	2.d\	.
.	4E\	.	.	.
.	1D	.	.	2g/
.	.	.	4c\	.
.	.	.	4B\	2.g/
.	.	.	4A/	.
1BB	2.D\	.	1G	.
.	.	.	.	4a/
.	.	.	.	2b\
.	4E\	.	.	.
=50	=50	=50	=50	=50
2AA/	4F\	0.c	1A	1cc
.	4G\	.	.	.
1C	1A	.	.	.
.	.	.	1r	0a
2BB/	2.G\	.	.	.
1AA	.	.	1r	.
.	4F#i\	.	.	.
.	2F#i\	.	.	.
=51	=51	=51	=51	=51
0GG	0G	0.B	1d	1b
.	.	.	2d\	2r
.	.	.	2d\	2g/
1GG	1G	.	[1d	2g/
.	.	.	.	2g/
=52	=52	=52	=52	=52
2r	2r	0A	2d\]	1a
2D\	2F\	.	4c\	.
.	.	.	4B\	.
2D\	2F\	.	1A	1.f
2.D\	2F\	.	.	.
.	4F\	1A	1d	.
4C/	4E\	.	.	.
4BB/	4D\	.	.	4e/
4AA/	4C/	.	.	4f/
=53	=53	=53	=53	=53
0GG	1D	0B	2.d\	1.g
.	.	.	4c\	.
.	1G	.	4B\	.
.	.	.	4A/	.
.	.	.	1G	2e/
1AA	1C	1c	.	1e
.	.	.	2E/	.
=54	=54	=54	=54	=54
0EE	2r	0B	1E	1r
.	1G	.	.	.
.	.	.	2r	1r
.	2G\	.	2B\	.
1r	2A\	2r	2c\	2r
.	2G\	[2B\	[2e\	[2g/
=55	=55	=55	=55	=55
1EE	1.E	2B\]	2e\]	2g/]
.	.	2B\	2d\	2g/
1AA	.	2c\	2c\	2a/
.	2E\	1e	4B\	1cc
.	.	.	4A/	.
2EE/	1E	.	1G	.
2GG/	.	2d\	.	2b\
=56	=56	=56	=56	=56
2AA/	2E\	2c\	1r	2a/
2BB/	2D\	4B\	.	4g/
.	.	4A/	.	4f/
2.C/	2E\	2G/	0G	1e
.	2C/	1c	.	.
4BB/	.	.	.	.
1GG	1D	.	.	1g
.	.	2B\	.	.
=57	=57	=57	=57	=57
0C	1C	0c	2E/	4g/
.	.	.	.	4f/
.	.	.	2.E/	4e/
.	.	.	.	4d/
.	1.G	.	.	1e
.	.	.	4F/	.
.	.	.	4G/	.
.	.	.	4A/	.
1GG	.	[1B	2B\	[1d
.	4F\	.	2G/	.
.	4E\	.	.	.
=58	=58	=58	=58	=58
2r	0D	0.B]	2G/	1d]
2GG/	.	.	2.G/	.
2GG/	.	.	.	2r
.	.	.	4A/	.
2.GG/	.	.	4B\	2d/
.	.	.	4c\	.
.	2r	.	[1d	2d/
4AA/	.	.	.	.
4BB/	2D\	.	.	[2d/
4C/	.	.	.	.
=59	=59	=59	=59	=59
1D	2D\	1r	1d]	4d/]
.	.	.	.	4e/
.	2.D\	.	.	4f/
.	.	.	.	4g/
1D	.	2r	1d	1a
.	4E\	.	.	.
.	4F\	2A/	.	.
.	4G\	.	.	.
[1AA	1A	2A/	[1c	2.a/
.	.	[2A/	.	.
.	.	.	.	4g/
=60	=60	=60	=60	=60
1AA]	1A	4A/]	0c]	2e/
.	.	4B\	.	.
.	.	4c\	.	2a/
.	.	4d\	.	.
2r	2.E\	2.e\	.	2.g/
2.C/	.	.	.	.
.	4F\	4d\	.	4f/
.	1G	2c\	0r	2e/
4BB/	.	.	.	.
2GG/	.	2B\	.	2d/
1AA	1C	1A	.	2c/
.	.	.	.	4d/
.	.	.	.	4c/
=61	=61	=61	=61	=61
2GG/	2r	2B\	2r	0d
2GG/	1G	2.d\	2.B\	.
4GG/	.	.	.	.
4AA/	.	4c\	4A/	.
4BB/	2G\	1B	1G	.
4C/	.	.	.	.
1D	1D	.	.	2r
.	.	2A/	2F/	2d/
=62	=62	=62	=62	=62
0GG	2G\	1B	4G/	2d/
.	.	.	4A/	.
.	2.G\	.	4B\	2d/
.	.	.	4c\	.
.	.	2G/	2d\	2.B/
.	4F\	.	.	.
.	2E\	1G	2G/	.
.	.	.	.	4G/
1r	1D	.	1d	2A/
.	.	2F#i/	.	4B/
.	.	.	.	4A/
=63	=63	=63	=63	=63
0.GGl	0.Dl	0.Gl	0.dl	0.Bl
!!LO:LB:i:g=z
=64||	=64||	=64||	=64||	=64||
*>B	*>B	*>B	*>B	*>B
*clefF4	*clefF4	*clefGv2	*clefGv2	*clefG2
*k[]	*k[]	*k[]	*k[]	*k[]
*M2/1	*M2/1	*M2/1	*M2/1	*M2/1
*met(C2)	*met(C2)	*met(C2)	*met(C2)	*met(C2)
!!section: Crucifixus
!!!OMD: Crucifixus
0r	0r	0r	1G	0r
.	.	.	2G/	.
.	.	.	[2E/	.
=65.	=65.	=65.	=65.	=65.
0r	0r	0r	4E/]	1g
.	.	.	4F/	.
.	.	.	4G/	.
.	.	.	4A/	.
.	.	.	2B\	2g/
.	.	.	[2c\	[2e/
=66	=66	=66	=66	=66
0r	0r	0r	2c\]	4e/]
.	.	.	.	4f/
.	.	.	4B\	4g/
.	.	.	4A/	4a/
.	.	.	2G/	2b\
.	.	.	[2A/	[2cc\
=67.	=67.	=67.	=67.	=67.
0r	0r	0r	2A/]	2cc\]
.	.	.	2c\	4b\
.	.	.	.	4a/
.	.	.	2B\	2g/
.	.	.	2A/	[2a/
=68	=68	=68	=68	=68
0r	0r	0r	2.c\	2a/]
.	.	.	.	2cc\
.	.	.	4B\	.
.	.	.	2G/	2b\
.	.	.	2A/	[2a/
=69.	=69.	=69.	=69.	=69.
1r	0r	0r	1c	4a/]
.	.	.	.	4g/
.	.	.	.	4f/
.	.	.	.	4e/
1D	.	.	1d	2f/
.	.	.	.	4e/
.	.	.	.	4d/
=70	=70	=70	=70	=70
1.AA	1r	0r	0e	0c
.	1A	.	.	.
2AA/	.	.	.	.
=71.	=71.	=71.	=71.	=71.
2.C/	1.E	0r	0r	0r
4D\	.	.	.	.
4E\	.	.	.	.
4F\	.	.	.	.
[2G\	2E\	.	.	.
=72	=72	=72	=72	=72
4G\]	2G\	0r	0r	0r
4F\	.	.	.	.
1E	2G\	.	.	.
.	1F	.	.	.
2D\	.	.	.	.
=73.	=73.	=73.	=73.	=73.
1E	1E	[0B	[0e	1r
[1EE [1E	[1G	.	.	[1g
=74	=74	=74	=74	=74
1EE] 1E]	1G]	0B]	1e]	1g]
1EE 1E	1G	.	1e	1g
=75.	=75.	=75.	=75.	=75.
0AA	1C	[0c	[0e	2e/
.	.	.	.	2a/
.	[1E	.	.	2e/
.	.	.	.	[2a/
=76	=76	=76	=76	=76
0AA	1E]	0c]	1.e]	4a/]
.	.	.	.	4b\
.	.	.	.	1cc
.	1C	.	.	.
.	.	.	4d\	4b\
.	.	.	4c\	4a/
=77.	=77.	=77.	=77.	=77.
0GG	0G	0d	2B\	1b
.	.	.	2B\	.
.	.	.	2B\	2g/
.	.	.	2B\	[2b\
=78	=78	=78	=78	=78
1AA	[0E	1c	2c\	4b\]
.	.	.	.	4a/
.	.	.	2.e\	1a
1E	.	1B	.	.
.	.	.	4d\	.
.	.	.	2B\	2g#i/
=79.	=79.	=79.	=79.	=79.
[0AA	1E]	[0A	0c	[0a
.	1F	.	.	.
=80	=80	=80	=80	=80
0AA]	0E	0A]	2r	0a]
.	.	.	1e	.
.	.	.	2e\	.
=81.	=81.	=81.	=81.	=81.
0r	0r	0r	2d\	2r
.	.	.	4c\	1a
.	.	.	4B\	.
.	.	.	1c	.
.	.	.	.	2a/
=82	=82	=82	=82	=82
0r	0r	0r	2B\	2g/
.	.	.	1e	4f/
.	.	.	.	4e/
.	.	.	.	1f
.	.	.	2d\	.
=83.	=83.	=83.	=83.	=83.
0r	0r	0r	2c\	2e/
.	.	.	1e	1g
.	.	.	2d\	2f/
=84	=84	=84	=84	=84
1r	0r	0r	2c\	2e/
.	.	.	2B\	2d/
1AA	.	.	1A	1c
=85.	=85.	=85.	=85.	=85.
2.E\	2r	0r	0G	0B
.	2G\	.	.	.
4F\	.	.	.	.
2G\	2.G\	.	.	.
[2C/	.	.	.	.
.	4F\	.	.	.
=86	=86	=86	=86	=86
4C/]	2G\	0r	0r	0r
4BB/	.	.	.	.
2C/	2A\	.	.	.
2D\	2F\	.	.	.
2BB/	4G\	.	.	.
.	4F\	.	.	.
=87.	=87.	=87.	=87.	=87.
4C/	4E\	0r	0r	0r
4BB/	4D\	.	.	.
4AA/	1G	.	.	.
4GG/	.	.	.	.
1AA	.	.	.	.
.	2F#i\	.	.	.
=88	=88	=88	=88	=88
1GG	1G	[0G	0d	1r
1GG	2r	.	.	1b
.	2D\	.	.	.
=89.	=89.	=89.	=89.	=89.
1GG	2D\	0G]	1d	1b
.	1G	.	.	.
1GG	.	.	1d	1b
.	4F\	.	.	.
.	4E\	.	.	.
=90	=90	=90	=90	=90
1GG	2D\	0G	1d	1b
.	2D\	.	.	.
1GG	1G	.	1d	1b
=91.	=91.	=91.	=91.	=91.
[0D	[0A	[0F	1d	2.a/
.	.	.	.	4g/
.	.	.	[1d	4f/
.	.	.	.	4e/
.	.	.	.	[2f/
=92	=92	=92	=92	=92
0D]	0A]	0F]	2d\]	4f/]
.	.	.	.	4e/
.	.	.	4c\	4d/
.	.	.	4B\	4c/
.	.	.	1A	1d
=93.	=93.	=93.	=93.	=93.
0AA	0r	0E	2r	1e
.	.	.	2A/	.
.	.	.	1c	2r
.	.	.	.	2e/
=94	=94	=94	=94	=94
0r	0r	0r	1B	1g
.	.	.	[1A	1f
=95.	=95.	=95.	=95.	=95.
0r	0r	0r	2A/]	1.e
.	.	.	4G/	.
.	.	.	4F/	.
.	.	.	4E/	.
.	.	.	4F/	.
.	.	.	4G/	4d/
.	.	.	4A/	4c/
=96	=96	=96	=96	=96
0r	0r	0r	4B\	4B/
.	.	.	4A/	4c/
.	.	.	4B\	4d/
.	.	.	4c\	4e/
.	.	.	2.d\	2f/
.	.	.	.	[2d/
.	.	.	4c\	.
=97.	=97.	=97.	=97.	=97.
0r	0r	0r	4B\	2d/]
.	.	.	4A/	.
.	.	.	1A	2c/
.	.	.	.	1B
.	.	.	2G#i/	.
=98	=98	=98	=98	=98
1AA	1r	0r	0A	1A
2AA/	1E	.	.	1r
[2C/	.	.	.	.
=99.	=99.	=99.	=99.	=99.
2C/]	2E\	0r	0r	0r
4BB/	1G	.	.	.
4AA/	.	.	.	.
2BB/	.	.	.	.
2BB/	4F\	.	.	.
.	4E\	.	.	.
=100	=100	=100	=100	=100
2.AA/	1F	0r	0r	0r
4BB/	.	.	.	.
2C/	2.E\	.	.	.
2D\	.	.	.	.
.	4F\	.	.	.
=101.	=101.	=101.	=101.	=101.
2E\	2G\	0r	0r	0r
2.F\	2A\	.	.	.
.	2B\	.	.	.
4E\	.	.	.	.
4D\	[2c\	.	.	.
4C/	.	.	.	.
=102	=102	=102	=102	=102
1D	4c\]	0r	0r	0r
.	4B\	.	.	.
.	2B\	.	.	.
1C	1c	.	.	.
=103.	=103.	=103.	=103.	=103.
1FF	1r	[0F	1c	1a
2FF/	1A	.	2c\	2a/
2FF/	.	.	2c\	2a/
=104	=104	=104	=104	=104
1FF	2A\	0F]	1.c	1a
.	2A\	.	.	.
1FF	2A\	.	.	1cc
.	2A\	.	2c\	.
=105.	=105.	=105.	=105.	=105.
0FF	0A	0F	1c	1cc
.	.	.	1c	1a
=106	=106	=106	=106	=106
2GG/	1G	[0D	2B\	2.b\
2.GG/	.	.	2G/	.
.	.	.	.	4a/
.	1B	.	[1d	2g/
4AA/	.	.	.	.
4BB/	.	.	.	[2g/
4C/	.	.	.	.
=107.	=107.	=107.	=107.	=107.
1D	1A	0D]	2d\]	2g/]
.	.	.	2c\	2f/
1GG	1G	.	1B	2g/
.	.	.	.	4f/
.	.	.	.	4e/
=108	=108	=108	=108	=108
2r	1r	[0F	0A	2d/
2D\	.	.	.	1a
2.F\	1A	.	.	.
.	.	.	.	2g/
4E\	.	.	.	.
=109.	=109.	=109.	=109.	=109.
2D\	2A\	1F]	0r	2f/
2C/	2A\	.	.	2e/
1BB	1D	1G	.	1d
=110	=110	=110	=110	=110
1AA	2E\	0A	0r	2c/
.	2F\	.	.	2a/
1C	2E\	.	.	2a/
.	2A\	.	.	2e/
=111.	=111.	=111.	=111.	=111.
0D	2.F\	1D	1r	4f/
.	.	.	.	4e/
.	.	.	.	4d/
.	4G\	.	.	4c/
.	1A	1F	1d	1d
=112	=112	=112	=112	=112
0AA	0A	[0E	1e	0c
.	.	.	2e\	.
.	.	.	[2e\	.
=113.	=113.	=113.	=113.	=113.
0r	0r	0E]	2e\]	1r
.	.	.	4d\	.
.	.	.	4c\	.
.	.	.	1B	1g
=114	=114	=114	=114	=114
0r	0r	0r	2.A/	1a
.	.	.	4B\	.
.	.	.	2c\	2a/
.	.	.	2d\	[2a/
=115.	=115.	=115.	=115.	=115.
0r	1r	0r	2A/	2a/]
.	.	.	2.d\	4g/
.	.	.	.	4f/
.	1A	.	.	1e
.	.	.	4c#i\	.
.	.	.	2c#i\	.
=116	=116	=116	=116	=116
1D	2A\	0r	1d	1d
.	1B	.	.	.
1E	.	.	1r	1r
.	[2G\	.	.	.
=117.	=117.	=117.	=117.	=117.
1C	2G\]	0r	0r	0r
.	2c\	.	.	.
1D	2B\	.	.	.
.	[2A\	.	.	.
=118	=118	=118	=118	=118
0AA	4A\]	0r	1r	0r
.	4G\	.	.	.
.	4F\	.	.	.
.	4E\	.	.	.
.	1F	.	1c	.
=119.	=119.	=119.	=119.	=119.
0r	0E	0r	2c\	1g
.	.	.	1e	.
.	.	.	.	2g/
.	.	.	4d\	[2b\
.	.	.	4c\	.
=120	=120	=120	=120	=120
0r	0r	0r	2d\	2b\]
.	.	.	2e\	4a/
.	.	.	.	4g/
.	.	.	2f\	4a/
.	.	.	.	4b\
.	.	.	[2e\	2cc\
=121.	=121.	=121.	=121.	=121.
0r	0r	0r	4e\]	2b\
.	.	.	4d\	.
.	.	.	2c\	2.a/
.	.	.	1B	.
.	.	.	.	4g#i/
.	.	.	.	2g#i/
=122	=122	=122	=122	=122
0AA	1r	0c	0A	2a/
.	.	.	.	2a/
.	2r	.	.	2a/
.	2A\	.	.	2a/
=123.	=123.	=123.	=123.	=123.
1AA	2A\	0c	0r	1.e
.	2A\	.	.	.
1AA	[1E	.	.	.
.	.	.	.	2e/
=124	=124	=124	=124	=124
0EE	2E\]	0B	2r	2e/
.	2E\	.	2e\	2e/
.	2E\	.	2e\	2.e/
.	2E\	.	2e\	.
.	.	.	.	4f/
=125.	=125.	=125.	=125.	=125.
1EE	1E	[0B	1.B	2g/
.	.	.	.	1g
1EE	[1G	.	.	.
.	.	.	2B\	4f/
.	.	.	.	4e/
=126	=126	=126	=126	=126
0GG	2G\]	0B]	2.B\	1d
.	4F\	.	.	.
.	4E\	.	4c\	.
.	2D\	.	2d\	1g
.	2G\	.	2B\	.
=127.	=127.	=127.	=127.	=127.
1.AA	0E	0A	2c\	0c
.	.	.	1A	.
2BB/	.	.	4G/	.
.	.	.	4F/	.
=128	=128	=128	=128	=128
1C	0r	1.A	1E	0r
2.D\	.	.	2.F/	.
.	.	2B\	.	.
4C/	.	.	4E/	.
=129.	=129.	=129.	=129.	=129.
2AA/	0r	1c	2E/	0r
2C/	.	.	2A/	.
2BB/	.	[1d	2G/	.
[2GG/	.	.	[2B\	.
=130	=130	=130	=130	=130
2GG/]	1r	2d\]	4B\]	0r
.	.	.	4A/	.
2BB/	.	2B\	1G	.
1AA	1C	1c	.	.
.	.	.	2F#i/	.
=131.	=131.	=131.	=131.	=131.
0GG	1D	0B	0G	0r
.	2D\	.	.	.
.	[2E\	.	.	.
=132	=132	=132	=132	=132
0r	2E\]	0r	0r	1c
.	2E\	.	.	.
.	2F\	.	.	1d
.	2D\	.	.	.
=133.	=133.	=133.	=133.	=133.
0r	2F\	0r	0r	2d/
.	2E\	.	.	1e
.	2.A\	.	.	.
.	.	.	.	2e/
.	4G\	.	.	.
=134	=134	=134	=134	=134
0r	4F\	0r	0r	2f/
.	4E\	.	.	.
.	2F\	.	.	2d/
.	2D\	.	.	2f/
.	[2A\	.	.	2e/
=135.	=135.	=135.	=135.	=135.
0r	4A\]	0r	0r	2.a/
.	4G\	.	.	.
.	4F\	.	.	.
.	4E\	.	.	4g/
.	1A	.	.	4f/
.	.	.	.	4e/
.	.	.	.	[2f/
=136	=136	=136	=136	=136
1r	2G\	0r	0r	2f/]
.	2E\	.	.	2.e/
1D	1F	.	.	.
.	.	.	.	4d/
.	.	.	.	2d/
=137.	=137.	=137.	=137.	=137.
2C/	1E	0r	0r	0e
2AA/	.	.	.	.
2.C/	1A	.	.	.
4D\	.	.	.	.
=138	=138	=138	=138	=138
4E\	2G\	0r	0r	0r
4F\	.	.	.	.
1G	2E\	.	.	.
.	2.G\	.	.	.
4F\	.	.	.	.
4E\	4A\	.	.	.
=139.	=139.	=139.	=139.	=139.
1D	2B\	0r	0r	0r
.	2B\	.	.	.
1C	2.c\	.	.	.
.	4B\	.	.	.
=140	=140	=140	=140	=140
2r	1G	0r	0r	0r
2C/	.	.	.	.
[1E	2r	.	.	.
.	2G\	.	.	.
=141.	=141.	=141.	=141.	=141.
2E\]	2.c\	0r	0r	0r
2E\	.	.	.	.
.	4B\	.	.	.
2C/	4B\	.	.	.
.	4A\	.	.	.
[2D\	2B\	.	.	.
=142	=142	=142	=142	=142
4D\]	2B\	0r	1r	0r
4C/	.	.	.	.
4BB/	2.A\	.	.	.
4AA/	.	.	.	.
1BB	.	.	1d	.
.	4G#i\	.	.	.
.	2G#i\	.	.	.
=143.	=143.	=143.	=143.	=143.
0AA	0A	0r	2c\	1r
.	.	.	2A/	.
.	.	.	2.c\	1a
.	.	.	4d\	.
=144	=144	=144	=144	=144
0r	0r	0r	2.e\	2g/
.	.	.	.	2e/
.	.	.	8d\L	.
.	.	.	8c\J	.
.	.	.	1B	2.g/
.	.	.	.	4a/
=145.	=145.	=145.	=145.	=145.
0r	0r	0e	2r	2b\
.	.	.	2E/	2b\
.	.	.	2A/	2.cc\
.	.	.	2A/	.
.	.	.	.	4b\
=146	=146	=146	=146	=146
0r	0r	0e	2E/	1g
.	.	.	2.c\	.
.	.	.	.	2r
.	.	.	4B\	.
.	.	.	2G/	2g/
=147.	=147.	=147.	=147.	=147.
0r	0r	1.e	2.A/	2.cc\
.	.	.	4G/	4b\
.	.	.	2E/	4b\
.	.	.	.	4a/
.	.	2d\	2G/	[2b\
=148	=148	=148	=148	=148
0r	0r	1c	1A	2b\]
.	.	.	.	2.a/
.	.	1B	1E	.
.	.	.	.	4g#i/
.	.	.	.	2g#i/
=149.	=149.	=149.	=149.	=149.
2.AA/	2r	[0A	0r	0a
.	2E\	.	.	.
4BB/	.	.	.	.
2C/	2E\	.	.	.
[2D\	[2F\	.	.	.
=150	=150	=150	=150	=150
2D\]	2F\]	0A]	0r	0r
4C/	4E\	.	.	.
4BB/	4D\	.	.	.
2C/	2E\	.	.	.
2D\	2F\	.	.	.
=151.	=151.	=151.	=151.	=151.
2GG/	1G	[0d	0r	0r
1G	.	.	.	.
.	1A	.	.	.
2F\	.	.	.	.
=152	=152	=152	=152	=152
2G\	2G\	0d]	0r	2r
2GG/	2B\	.	.	1g
1D	1A	.	.	.
.	.	.	.	2f/
=153.	=153.	=153.	=153.	=153.
2GG/	1G	1B	2r	1g
2BB/	.	.	1G	.
1AA	1r	1c	.	1a
.	.	.	2F/	.
=154	=154	=154	=154	=154
[0GG	1r	[0B	2G/	1b
.	.	.	2G/	.
.	2r	.	[1d	1g
.	[2G\	.	.	.
=155.	=155.	=155.	=155.	=155.
0GG]	2G\]	0B]	1d]	2r
.	2G\	.	.	1g
.	2G\	.	2r	.
.	2G\	.	2d\	2g/
=156	=156	=156	=156	=156
[0C	2.E\	[0c	2e\	2g/
.	.	.	2e\	2g/
.	4F\	.	.	.
.	2G\	.	2.c\	2.e/
.	2A\	.	.	.
.	.	.	4d\	4f/
=157.	=157.	=157.	=157.	=157.
0C_	2G\	0c]	2e\	2g/
.	2F\	.	2A/	2a/
.	1E	.	2.c\	2g/
.	.	.	.	2f/
.	.	.	4d\	.
=158	=158	=158	=158	=158
0C]	2r	0c	2e\	1e
.	2E\	.	2E/	.
.	2E\	.	2G/	2r
.	2E\	.	2G/	2e/
=159.	=159.	=159.	=159.	=159.
0r	2C/	1c	2G/	2e/
.	2C/	.	2G/	2e/
.	4C/	1c	2.G/	2e/
.	4D\	.	.	.
.	4E\	.	.	2e/
.	4F\	.	4A/	.
=160	=160	=160	=160	=160
0r	2G\	2B\	2B\	2.d/
.	2G\	1d	2B\	.
.	.	.	.	4e/
.	2.F\	.	1A	4f/
.	.	.	.	4g/
.	.	2c\	.	[2a/
.	4E\	.	.	.
=161.	=161.	=161.	=161.	=161.
0r	0D	2B\	0d	2a/]
.	.	4A/	.	2.g/
.	.	4G/	.	.
.	.	1A	.	.
.	.	.	.	4f#i/
.	.	.	.	2f#i/
=162	=162	=162	=162	=162
*M3/1	*M3/1	*M3/1	*M3/1	*M3/1
*met(3)	*met(3)	*met(3)	*met(3)	*met(3)
1GG	0.r	[0.G	1B	0g
1GG	.	.	1B	.
1GG	.	.	1B	1r
=163.	=163.	=163.	=163.	=163.
0C	1E	0.G]	0c	1e
.	1E	.	.	1e
1r	1C	.	1r	1e
=164	=164	=164	=164	=164
1GG	0D	0.r	1B	0g
1GG	.	.	1B	.
1GG	1r	.	1B	1r
=165.	=165.	=165.	=165.	=165.
1.C	1E	0.r	1c	1e
.	1E	.	0c	1e
2BB/	.	.	.	.
1AA	1C	.	.	1e
=166	=166	=166	=166	=166
0GG	0D	1G	1B	1.g
.	.	1G	1B	.
.	.	.	.	2f/
1r	1C	1G	1c	1e
=167.	=167.	=167.	=167.	=167.
1D	1.F	1.A	1d	0d
1D	.	.	0d	.
.	2E\	2G/	.	.
1D	1D	1F	.	1r
=168	=168	=168	=168	=168
1.AA	1C	0E	1e	1a
.	1.AA	.	1c	1a
2GG/	.	.	.	.
1FF	.	1D	1d	1a
.	2BB/	.	.	.
=169.	=169.	=169.	=169.	=169.
0.EE	0.BB	0E	1.G	1.g
.	.	.	2A/	2f/
.	.	1G	1B	1e
=170	=170	=170	=170	=170
!	!	!	!beat 1 originally G; looked like a mistake.	!
0.r	0.r	1F	1A	1d
.	.	1.A	1.c	1.f
.	.	2G/	2B\	2e/
=171.	=171.	=171.	=171.	=171.
0.r	0.r	1E	1.B	1.e
.	.	0F	.	.
.	.	.	2A/	2d/
.	.	.	1A	1d
=172	=172	=172	=172	=172
1.EE	0.r	0.E	0.B	0.e
2FF/	.	.	.	.
1GG	.	.	.	.
=173.	=173.	=173.	=173.	=173.
1AA	1.E	0.r	1r	0.r
2C/	.	.	1r	.
2D\	2F\	.	.	.
1BB	1G	.	1B	.
=174	=174	=174	=174	=174
0AA	1A	0.r	1c	1.e
.	1c	.	1e	.
.	.	.	.	2f/
1r	1B	.	1d	1g
=175.	=175.	=175.	=175.	=175.
1AA	1A	0.r	1e	1a
1AA	1F	.	1A	1cc
1GG	1G	.	1B	1b
=176	=176	=176	=176	=176
1FF	2A\	0.r	1c	1.a
.	1F	.	.	.
1.AA	.	.	1.c	.
.	2E\	.	.	2g/
.	2C/	.	.	2e/
2GG/	2D\	.	2B\	2f/
=177.	=177.	=177.	=177.	=177.
[0.EE	0E	0.r	1G	1g
.	.	.	1.c	2g/
.	.	.	.	1e
.	1E	.	.	.
.	.	.	2B\	2d/
=178	=178	=178	=178	=178
1EE]	1E	0.r	1.A	1c
0EE	0E	.	.	0B
.	.	.	2G#i/	.
.	.	.	1G#i	.
=179.	=179.	=179.	=179.	=179.
*M2/1	*M2/1	*M2/1	*M2/1	*M2/1
*met(C|)	*met(C|)	*met(C|)	*met(C|)	*met(C|)
0AA	0E	[0c	2A/	1A
.	.	.	2A/	.
.	.	.	2.c\	2r
.	.	.	.	2A/
.	.	.	4d\	.
=180	=180	=180	=180	=180
1r	2r	0c]	1e	2.c/
.	2AA/	.	.	.
.	.	.	.	4d/
1AA	2.C/	.	2r	1e
.	.	.	2A/	.
.	4D\	.	.	.
=181.	=181.	=181.	=181.	=181.
1AA	2E\	0c	2.c\	2r
.	2.C/	.	.	2A/
.	.	.	4d\	.
1AA	.	.	2e\	2.c/
.	4D\	.	.	.
.	4E\	.	[2E/	.
.	4F\	.	.	4d/
=182	=182	=182	=182	=182
1EE	1G	[0B	4E/]	2e/
.	.	.	4F/	.
.	.	.	4G/	2f/
.	.	.	4A/	.
1EE	1E	.	2B\	1g
.	.	.	[2G/	.
=183.	=183.	=183.	=183.	=183.
2.GG/	2D\	0B]	4G/]	0r
.	.	.	4A/	.
.	1G	.	4B\	.
4AA/	.	.	4c\	.
2BB/	.	.	1d	.
2C/	2G\	.	.	.
=184	=184	=184	=184	=184
2D\	0F	[0A	2r	1r
2.F\	.	.	2A/	.
.	.	.	2c\	2r
4E\	.	.	.	.
2D\	.	.	2d\	2A/
=185.	=185.	=185.	=185.	=185.
2C/	1E	0A]	0e	2.c/
2AA/	.	.	.	.
.	.	.	.	4d/
2C/	[1C	.	.	2e/
2D\	.	.	.	2f/
=186	=186	=186	=186	=186
2.E\	1C]	0G	1e	2g/
.	.	.	.	2a/
4C/	.	.	.	.
1BB	1D	.	1d	1b
=187.	=187.	=187.	=187.	=187.
[0AA	0E	1A	[0c	1cc
.	.	2A/	.	2cc\
.	.	[2F/	.	[2a/
=188	=188	=188	=188	=188
0AA_	[0A	2F/]	0c]	2a/]
.	.	4E/	.	4g/
.	.	4D/	.	4f/
.	.	2C/	.	2e/
.	.	[2A/	.	2f/
=189.	=189.	=189.	=189.	=189.
0AA]	0A]	4A/]	0r	2e/
.	.	4G/	.	.
.	.	2F/	.	2.d/
.	.	1E	.	.
.	.	.	.	4c#i/
.	.	.	.	2c#i/
=190	=190	=190	=190	=190
1r	1r	2D/	2r	1d
.	.	2F/	1d	.
1AA	1A	1E	.	[1a
.	.	.	2c\	.
=191.	=191.	=191.	=191.	=191.
1D	2A\	1D	2d\	1a]
.	1F	.	1f	.
2.D\	.	[1A	.	1a
.	2F\	.	4e\	.
4C/	.	.	4d\	.
=192	=192	=192	=192	=192
2.AA/	1E	2A/]	2.c\	[0a
.	.	4G/	.	.
4BB/	.	4F/	4d\	.
2C/	[1c	2E/	2e\	.
2FF/	.	[2A/	[2f\	.
=193.	=193.	=193.	=193.	=193.
1C	1c]	2A/]	2f\]	0a]
.	.	2G/	2.e\	.
1D	[1A	1F	.	.
.	.	.	4d\	.
.	.	.	2d\	.
=194	=194	=194	=194	=194
0AA	1A]	[0E	0e	0a
.	1A	.	.	.
=195.	=195.	=195.	=195.	=195.
0EE	1.B	0E]	1.e	[0g
.	2G\	.	2d\	.
=196	=196	=196	=196	=196
[0EEl	0G	[0El	1c	1g]
.	.	.	1B	1e
=197.	=197.	=197.	=197.	=197.
0EE]	0Gl	0E]	0Bl	0el
==	==	==	==	==
*-	*-	*-	*-	*-
!!!RDF**kern: l=long note in original notation
!!!RDF**kern: i=editorial accidental
!!!ENC:	Chris Gage 05-16-2013
!!!END:	2013/08/03/
!!!EED:	Jesse Rodin
!!!EEV:	2013/08/05/
!!!ONB:	Translated from MusicXML and edited on 2013/08/05/ by Craig Sapp
!!muse2ps: T^@{OPR}^u^@{ONM}{. }@{OTL}^C^@{COM}^i2I150v85,85,85,85,130Q16
